X: 17376
T: High Road To Cork, The
R: slip jig
M: 9/8
K: Amixolydian
|:e3 A2 g gfg|e3 A2 g Bcd|e3 A2 g gfg|d3 G2 A Bcd:|
|:e2 g faf gfg|e2 A ABc Bcd|e2 g f/g/af gfe|d3 G2 A BB/c/d:|

